X:1
T:Gavotte : Tamm kreiz Ronan Robert
Q:1/4=120
M:4/4
L:1/8
K:G
(3EBc "Am"AA (3e"G"dc "Em"B2 | (3EBc "F"AA (3AGA "Em"B2 |
(3EBc "Am"AA (3e"G"dc "Em"B2 | (3EBc "F"AA (3AGA "Em"Bc ||
Q:1/4=140
d2 cB EB "F"AG | Ae "D"dc "Em"B2 B2 | 
d2 cB EB "F"AG | AB (3c"D"BA "Em"E2 [E2e2] |]
